svg/furkot/icomoon/user.svg

<svg viewBox="0 0 512 512" xmlns="http://www.w3.org/2000/svg"><path d="m288 353.304v-26.392c35.248-19.864 64-69.384 64-118.912 0-79.528 0-144-96-144s-96 64.472-96 144c0 49.528 28.752 99.056 64 118.912v26.392c-108.552 8.872-192 62.208-192 126.696h448c0-64.48-83.448-117.816-192-126.696z"/></svg>

<svg xmlns="http://www.w3.org/2000/svg" viewBox="0 0 512 512"><path d="M288 353.304V326.912C323.248 307.048 352 257.528 352 208 352 128.472 352 64 256 64S160 128.472 160 208C160 257.528 188.752 307.056 224 326.912V353.304C115.448 362.176 32 415.512 32 480H480C480 415.52 396.552 362.184 288 353.304Z"/></svg>
